X:348
T: "Die Gerettete"
N: Z1028
O: Europa, Mitteleuropa, Deutschland, Niederrhein
R: Romanze, Ballade, Tod, Blaubart - Sage
M: 3/4
L: 1/8
K: E
=D=GA | B2A=cBA | =G3
=DGA | B2A=cBA | B3
FEF | =GEABGF | E3
DEF | =GEABGF | E2z

